src/assets/Imgs/darkMenu/govern.svg

<svg fill="none" height="24" viewBox="0 0 24 24" width="24" xmlns="http://www.w3.org/2000/svg"><g stroke="#b0b0b0" stroke-linecap="round" stroke-width="1.5"><g stroke-linejoin="round"><path d="m17 7h-10"/><path d="m17 11h-10"/><path d="m12 15h-5"/></g><path d="m19 2h-14c-1.10457 0-2 .89543-2 2v15.1543c0 1.3853 1.37412 2.351 2.67744 1.8818l1.56176-.5622c.48801-.1757 1.02519-.1549 1.49817.0579l2.44193 1.0989c.5219.2348 1.1195.2348 1.6414 0l2.4419-1.0989c.473-.2128 1.0102-.2336 1.4982-.0579l1.5618.5622c1.3033.4692 2.6774-.4965 2.6774-1.8818v-15.1543c0-1.10457-.8954-2-2-2z"/></g></svg>

<svg width="24" height="24" viewBox="0 0 24 24" fill="none" xmlns="http://www.w3.org/2000/svg">
<g id="Po">
<path id="Vector 1874" d="M17 7L7 7" stroke="#B0B0B0" stroke-width="1.5" stroke-linecap="round" stroke-linejoin="round"/>
<path id="Vector 1875" d="M17 11L7 11" stroke="#B0B0B0" stroke-width="1.5" stroke-linecap="round" stroke-linejoin="round"/>
<path id="Vector 1876" d="M12 15L7 15" stroke="#B0B0B0" stroke-width="1.5" stroke-linecap="round" stroke-linejoin="round"/>
<path id="Vector 1878" d="M19 2H5C3.89543 2 3 2.89543 3 4V19.1543C3 20.5396 4.37412 21.5053 5.67744 21.0361L7.2392 20.4739C7.72721 20.2982 8.26439 20.319 8.73737 20.5318L11.1793 21.6307C11.7012 21.8655 12.2988 21.8655 12.8207 21.6307L15.2626 20.5318C15.7356 20.319 16.2728 20.2982 16.7608 20.4739L18.3226 21.0361C19.6259 21.5053 21 20.5396 21 19.1543V4C21 2.89543 20.1046 2 19 2Z" stroke="#B0B0B0" stroke-width="1.5" stroke-linecap="round"/>
</g>
</svg>
